X: 34343
T: Return To Dillingham, The
R: polka
M: 2/4
K: Gmajor
|:d>e dc|BG EG|DG G/F/G/A/|BG ED|
d>e dc|BG EG|DG G/F/G/A/|1 BG GB:|2 BG GB/c/||
|:dg eg|dg b/a/g/e/|dB G>A|BG ED|
dg eg|dg b/a/g/e/|dg b>a|1 ag gB/c/:|2 ag g2||

